src/assets/icons/xing.svg

<svg fill="none" height="28" viewBox="0 0 28 28" width="28" xmlns="http://www.w3.org/2000/svg"><path d="m25.2194.258606h-22.4906c-1.38047 0-2.52891 1.150784-2.52891 2.528904v22.49059c0 1.3735 1.14844 2.5219 2.52891 2.5219h22.4906c1.3711 0 2.5196-1.1484 2.5196-2.5219v-22.49059c0-1.37812-1.1485-2.528904-2.5196-2.528904zm-16.52576 18.541394h-3.21562c-.4711-.0164-.57657-.4148-.34219-.757l3.33047-6.143c.11015-.1125.11015-.2765 0-.3937l-2.1961-3.83441c-.11718-.22969 0-.57188.22969-.57188h3.3c.11719 0 .23201.02578.34691.22969l2.4492 4.2938c.1101.1125.1101.2226 0 .3421l-3.56017 6.5391s-.13594.2836-.34219.2953zm13.99926-14.52186-6.443 11.82186c-.1125.1172-.1125.1828 0 .3l4.1437 7.3828c.2297.436 0 .7172-.3398.7172h-3.2109c-.1172 0-.1875-.0797-.3493-.3703l-4.3593-7.7297c-.0797-.089-.0774-.1969 0-.3047l6.6586-12.27888c.1336-.25781.3398-.31641.457-.31641h3.15c.4055-.01172.4734.4125.293.77813z" fill="#000"/></svg>

<svg width="28" height="28" viewBox="0 0 28 28" fill="none" xmlns="http://www.w3.org/2000/svg">
<path d="M25.2194 0.258606H2.7288C1.34833 0.258606 0.19989 1.40939 0.19989 2.78751V25.2781C0.19989 26.6516 1.34833 27.8 2.7288 27.8H25.2194C26.5905 27.8 27.739 26.6516 27.739 25.2781V2.78751C27.739 1.40939 26.5905 0.258606 25.2194 0.258606ZM8.69364 18.8H5.47802C5.00692 18.7836 4.90145 18.3852 5.13583 18.043L8.4663 11.9C8.57645 11.7875 8.57645 11.6235 8.4663 11.5063L6.2702 7.67189C6.15302 7.4422 6.2702 7.10001 6.49989 7.10001H9.79989C9.91708 7.10001 10.0319 7.12579 10.1468 7.3297L12.596 11.6235C12.7061 11.736 12.7061 11.8461 12.596 11.9656L9.03583 18.5047C9.03583 18.5047 8.89989 18.7883 8.69364 18.8ZM22.6929 4.27814L16.2499 16.1C16.1374 16.2172 16.1374 16.2828 16.2499 16.4L20.3936 23.7828C20.6233 24.2188 20.3936 24.5 20.0538 24.5H16.8429C16.7257 24.5 16.6554 24.4203 16.4936 24.1297L12.1343 16.4C12.0546 16.311 12.0569 16.2031 12.1343 16.0953L18.7929 3.81642C18.9265 3.55861 19.1327 3.50001 19.2499 3.50001H22.3999C22.8054 3.48829 22.8733 3.91251 22.6929 4.27814Z" fill="black"/>
</svg>
